X: 27107
T: Miss MacLean Of Inverscadle
R: reel
M: 4/4
K: Gmixolydian
c2|:BG DG BG dB|AF CF AF cA|BG DG BG dB|1 AF cA BG Gc:|2 AF cA BG GB||
ga bg dg Bg|Aa fc AF cA|ga bg dg Bd|cA fc BG GB|
ga bg dg Bg|Ag fc AF cA|GA Bc dg fd|cA Fc BG Gc|

